icons/circle/48/distributor-logo-antix.svg

<svg version="1.1" viewBox="0 0 48 48" xmlns="http://www.w3.org/2000/svg">
 <defs>
  <linearGradient id="linearGradient3764" x1="1" x2="47" gradientTransform="matrix(0 -1 1 0 -1.5e-6 48)" gradientUnits="userSpaceOnUse">
   <stop style="stop-color:#b6b9c2" offset="0"/>
   <stop style="stop-color:#c0c3cb" offset="1"/>
  </linearGradient>
 </defs>
 <path d="m36.31 5c5.859 4.062 9.688 10.831 9.688 18.5 0 12.426-10.07 22.5-22.5 22.5-7.669 0-14.438-3.828-18.5-9.688 1.037 1.822 2.306 3.499 3.781 4.969 4.085 3.712 9.514 5.969 15.469 5.969 12.703 0 23-10.298 23-23 0-5.954-2.256-11.384-5.969-15.469-1.469-1.475-3.147-2.744-4.969-3.781zm4.969 3.781c3.854 4.113 6.219 9.637 6.219 15.719 0 12.703-10.297 23-23 23-6.081 0-11.606-2.364-15.719-6.219 4.16 4.144 9.883 6.719 16.219 6.719 12.703 0 23-10.298 23-23 0-6.335-2.575-12.06-6.719-16.219z" style="opacity:.05"/>
 <path d="m41.28 8.781c3.712 4.085 5.969 9.514 5.969 15.469 0 12.703-10.297 23-23 23-5.954 0-11.384-2.256-15.469-5.969 4.113 3.854 9.637 6.219 15.719 6.219 12.703 0 23-10.298 23-23 0-6.081-2.364-11.606-6.219-15.719z" style="opacity:.1"/>
 <path d="m31.25 2.375c8.615 3.154 14.75 11.417 14.75 21.13 0 12.426-10.07 22.5-22.5 22.5-9.708 0-17.971-6.135-21.12-14.75a23 23 0 0 0 44.875 -7 23 23 0 0 0 -16 -21.875z" style="opacity:.2"/>
 <path d="m24 1c12.703 0 23 10.297 23 23s-10.297 23-23 23-23-10.297-23-23 10.297-23 23-23z" style="fill:url(#linearGradient3764)"/>
 <path d="m40.03 7.531c3.712 4.084 5.969 9.514 5.969 15.469 0 12.703-10.297 23-23 23-5.954 0-11.384-2.256-15.469-5.969 4.178 4.291 10.01 6.969 16.469 6.969 12.703 0 23-10.298 23-23 0-6.462-2.677-12.291-6.969-16.469z" style="opacity:.1"/>
 <path d="m16.5 11c-2 0-2.5 1-3.5 2.5 1.4302-0.76217 2.3351-1.0269 3.5996-0.5 0.95309 0.39712 3.7395 3.0161 6.748 6.4512-3.5019 6.3056-8.0873 15.398-9.3477 18.549h4.5c2.1766-6.8408 4.396-12.517 6.3379-16.797 4.1148 4.9692 8.1621 11.034 8.1621 14.797 0 0.554 0.446 1 1 1h1c0.554 0 1-0.446 1-1 0-3.5454-4.7158-11.613-9.8105-17.635 0.65421-1.312 1.267-2.4554 1.8105-3.3652h1c0.6088 0 1 0.39193 1 1l2-2s-0.60602-1-2-1h-2.5c-0.3039 0-1.3279 1.5602-2.6562 3.832-3.0998-3.3897-6.2007-5.832-8.3438-5.832z" style="opacity:.1"/>
 <path d="m27.5 12h2.5c1.394 0 2 1 2 1l-2 2c0-0.60807-0.3912-1-1-1h-1c-2.3895 4-6 12-9.5 23h-4.5c2-5 12.388-25 13.5-25z" style="fill:#f9f9f9"/>
 <path d="m13 12.5c1.4302-0.76217 2.3355-1.0269 3.6-0.5 2.4 1 16.4 16 16.4 23 0 0.554 0.446 1 1 1h1c0.554 0 1-0.446 1-1 0-6-13.5-25-19.5-25-2 0-2.5 1-3.5 2.5z" style="fill-opacity:.98238;fill:#f9f9f9"/>
</svg>

<svg viewBox="0 0 48 48" xmlns="http://www.w3.org/2000/svg">
  <defs>
    <linearGradient id="a" x1="1" x2="47" gradientTransform="rotate(-90 24 24)" gradientUnits="userSpaceOnUse">
      <stop offset="0" stop-color="#b6b9c2"/>
      <stop offset="1" stop-color="#c0c3cb"/>
    </linearGradient>
  </defs>
  <path d="M36.31 5c5.859 4.062 9.688 10.831 9.688 18.5 0 12.426-10.07 22.5-22.5 22.5-7.669 0-14.438-3.828-18.5-9.688a23.24 23.24 0 0 0 3.781 4.969 22.923 22.923 0 0 0 15.469 5.969c12.703 0 23-10.298 23-23a22.92 22.92 0 0 0-5.969-15.469A23.216 23.216 0 0 0 36.31 5zm4.969 3.781A22.911 22.911 0 0 1 47.498 24.5c0 12.703-10.297 23-23 23a22.909 22.909 0 0 1-15.719-6.219C12.939 45.425 18.662 48 24.998 48c12.703 0 23-10.298 23-23 0-6.335-2.575-12.06-6.719-16.219z" opacity=".05"/>
  <path d="M41.28 8.781a22.923 22.923 0 0 1 5.969 15.469c0 12.703-10.297 23-23 23A22.92 22.92 0 0 1 8.78 41.281 22.911 22.911 0 0 0 24.499 47.5c12.703 0 23-10.298 23-23A22.909 22.909 0 0 0 41.28 8.781z" opacity=".1"/>
  <path d="M31.25 2.375C39.865 5.529 46 13.792 46 23.505c0 12.426-10.07 22.5-22.5 22.5-9.708 0-17.971-6.135-21.12-14.75a23 23 0 0 0 44.875-7 23 23 0 0 0-16-21.875z" opacity=".2"/>
  <path d="M24 1c12.703 0 23 10.297 23 23S36.703 47 24 47 1 36.703 1 24 11.297 1 24 1z" fill="url(#a)"/>
  <path d="M40.03 7.531A22.922 22.922 0 0 1 45.999 23c0 12.703-10.297 23-23 23A22.92 22.92 0 0 1 7.53 40.031C11.708 44.322 17.54 47 23.999 47c12.703 0 23-10.298 23-23 0-6.462-2.677-12.291-6.969-16.469z" opacity=".1"/>
  <path d="M16.5 11c-2 0-2.5 1-3.5 2.5 1.43-.762 2.335-1.027 3.6-.5.953.397 3.74 3.016 6.748 6.451C19.846 25.757 15.26 34.85 14 38.001h4.5c2.177-6.842 4.396-12.518 6.338-16.798C28.953 26.173 33 32.237 33 36c0 .554.446 1 1 1h1c.554 0 1-.446 1-1 0-3.545-4.716-11.613-9.81-17.635A51.988 51.988 0 0 1 28 15h1c.609 0 1 .392 1 1l2-2s-.606-1-2-1h-2.5c-.304 0-1.328 1.56-2.656 3.832C21.744 13.442 18.643 11 16.5 11z" opacity=".1"/>
  <path d="M27.5 12H30c1.394 0 2 1 2 1l-2 2c0-.608-.391-1-1-1h-1c-2.39 4-6 12-9.5 23H14c2-5 12.388-25 13.5-25z" fill="#f9f9f9"/>
  <path d="M13 12.5c1.43-.762 2.336-1.027 3.6-.5C19 13 33 28 33 35c0 .554.446 1 1 1h1c.554 0 1-.446 1-1 0-6-13.5-25-19.5-25-2 0-2.5 1-3.5 2.5z" fill-opacity=".982" fill="#f9f9f9"/>
</svg>
